X:1
T:Wittenberg, LM
T:Wittenberg, LM
T:E. S. K., 1893
T:Public Domain Courtesy of the Cyber Hymnal™
C:E. S. K., 1893
Z:Public Domain
Z:Courtesy of the Cyber Hymnal™
%%score ( 1 2 ) ( 3 4 )
L:1/8
Q:1/4=115
M:4/4
K:Ab
V:1 treble 
V:2 treble 
V:3 bass 
V:4 bass 
V:1
 [Ac]4 [Ad]2 [Ac]2 | [AB]4 [Af]4 | ([GB]4 [Gc]2) [Gd]2 | [Ec]6 z2 | [FA]4 [CG]2 F2 | %5
 (c4 B2) [FA]2 | [FA]4 [=EG]4 | F6 z2 | [DG]4 [DF]2 E2 | ([EA]4 [EB]2) [Ec]2 | [Ed]4 d4 | %11
 [Ec]6 z2 | [=Ec]4 [EB]2 [Ec]2 | (B2 A4) [FB]2 | [Ec]4 B4 | [CA]6 z2 |] %16
V:2
 x8 | x8 | x8 | x8 | x6 F2 | F6 x2 | x8 | F6 x2 | x6 E2 | x8 | x4 (F2 G2) | x8 | x8 | C6 x2 | %14
 x4 (E2 D2) | x8 |] %16
V:3
 [A,E]4 [A,F]2 [A,E]2 | [A,=D]4 [A,D]4 | ([E,D]4 [E,C]2) [E,B,]2 | A,6 z2 | %4
 [F,C]4 [F,B,]2 [F,A,]2 | (A,4 G,2) F,2 | [C,C]4 (C2 B,2) | [F,A,]6 z2 | [E,B,]4 [E,A,]2 [E,G,]2 | %9
 ([C,A,]4 [E,G,]2) A,2 | [G,B,]4 ([F,A,]2 [E,B,]2) | A,6 z2 | [C,G,]4 [C,G,]2 [C,G,]2 | %13
 [F,A,]6 [D,A,]2 | [E,A,]4 [E,G,]4 | [A,,E,]6 z2 |] %16
V:4
 x8 | x8 | x8 | A,6 x2 | x8 | F,6 F,2 | x4 C,4 | x8 | x8 | x6 A,2 | x8 | A,6 x2 | x8 | x8 | x8 | %15
 x8 |] %16

